X: 1
T: My Home
C:
B: Army Manual I
B: BSFC Tune Book I-20
B: BSFC Session Tune Book 2016 p.73 #1
R: waltz
S: B.McO. 2/80, 10/82
Z: 2020 John Chambers <jc:trillian.mit.edu>
M: 3/4
L: 1/4
K: A
"^A"[|] ed |\
"A"c>BA | "/c#"Ace | "D"agf | "E7"e2d | "A"c>Bc | "F#m"ABc | "Bm"d>cd | "E7"Bed |
"A"c>BA | "/c#"Ace | "D"agf | "E7"e2d | "A"c<Ac | "G"B=GB | "A"A3 | A |]
"^B"[|] ze |\
"A"ABc | "/g#"c>Bc | "F#m"e2c | c2e | "D"d>cd | "E7"Bcd | "A"ecA | "/c#"Ace |
"D"f2f | "Bm"a>gf | "A/c#"e>dc | "D"a2d | "A"cAc | ""B=GB | "A"A3 | A |]
